X:1
T:James Gibb editions
T:Psalm 149 (Becker) - Schütz
%%score [ ( 1 2 ) ( 3 4 ) ]
L:1/8
Q:1/4=98
M:2/2
K:F
V:1 treble nm="Soprano Alto"
V:2 treble 
V:3 bass nm="Tenor Bass"
V:4 bass 
V:1
"^Cornelius Becker\n(1561-1604)""^Psalm 149, SWV 254""^Heinrich Schütz\n(1585-1672)" G4 B4 | %1
w: ~Die hei-|
w: sin- get|
 A2 B4 c2 | d4 d4 | _e4 d4 | c2 (B4 c2 | B2) A2 G4 :|[M:2/2] B4 B4 | c2 A4 B2 | G4 G4 | F4 G4 | %10
w: li- ge Ge-|mei- ne,|mit fröh-|li- chem *|* Ge- müt,|Gott hat|Is- ra- els|Sa- men|zu sei-|
w: von Her- zen|rei- ne|dem Herrn|ein neu\- *|* es Lied.|||||
 B2 B4 A2 | B8 | F4 c4 | c2 d4 c2 | B4 A4 | d4 B4 | c2 (d4 c2 | B2 c2) A4 | G8 |] %19
w: nem Volk ge-|macht,|des Kö-|nigs wer- ter|Na- me|Zi- on|groß Freu\- *|* * de|bracht.|
w: |||||||||
V:2
 D4 G4 | ^F2 G4 A2 | F4 F4 | G4 F4 | F2 (D4 _E2 | D2) D2 D4 :|[M:2/2] G4 G4 | G2 F4 F2 | _E4 E4 | %9
 D4 _E4 | D2 F4 F2 | F8 | C4 F4 | F2 F2 D2 F2- | F2 E2 F4 | F4 G4 | A2 (F4 A2 | D2 G4) ^F2 | G8 |] %19
V:3
 B,4 D4 | D2 D4 F2 | D4 D4 | B,4 B,4 | A,2 (B,3 A,G,^F, | G,2) ^F,2 G,4 :|[M:2/2] D4 D4 | %7
 _E2 C4 D2 | B,4 B,4 | B,4 B,4 | G,2 C4 C2 | D8 | %12
"^2. Sie sollen in dem Reigen \nloben des Herren Nam;\nmit Pauken, Harfen, Geigen \nspielen lieblich zusamm.\nDer Herr hat Wohlgefallen \nan seiner lieben Gmein,\nwill den Elenden allen \nein Gott und Helfer sein.\n\n3. Die Heiligen mit Freuden \npreisen Gott unsern Herrn,\nsein Ehr vor allen Leuten \nrühmen sie herzlich gern\nund wollen alle Stunden \nin Gottes Dienste stehn,\nmit Herzen und mit Munde \nsein Lob und Ehr erhöhn." A,4 A,4 | %13
 A,2 B,4 C2 | D2 G,2 C4 | B,4 D4 | F2 (D4 F2 | B,2 _E2) D4 | D8 |] %19
V:4
 G,4 G,4 | D,2 G,4 F,2 | B,4 B,4 | _E,4 B,,4 | F,2 (G,4 C,2 | G,,2) D,2 G,,4 :|[M:2/2] G,4 G,4 | %7
 C,2 F,4 B,,2 | _E,4 E,4 | B,,4 _E,4 | G,2 F,4 F,2 | B,,8 | F,4 F,4 | F,2 B,4 A,2 | G,4 F,4 | %15
 B,4 G,4 | F,2 (B,4 F,2 | G,2 C,2) D,4 | G,8 |] %19

